X:1
T:Title
%%score { ( 1 3 ) | ( 2 4 ) }
L:1/8
M:4/4
K:F
V:1 treble nm="Grand Piano"
V:3 treble 
V:2 bass 
V:4 bass 
V:1
 z4 z2[Q:1/4=94] FG | A>A AA B<A FA | [Ac]>[Ac] [Ac]>[Bd] [Ac]2 [GB][FA] | %3
 [EG]>[EG] [EG][EG] GAB[Ac] | [Be]>[Bd] [Ac]>[GB] A2 FG | A>A AA B<A FA | %6
 [Ac]>[Ac] [Ac]>[Bd] [Ac]2 [Ac][Ac] | d>B Bd d<c [CF][DFG] | %8
[M:7/8] [CFA]>[A,CF][B,EG]>[A,CF] [A,CF]3 |[M:1/4] A>B |[M:4/4] c4 A2 z2 | c4 A2 z2 | AAAA AdcA | %13
 G6 z2 | c4 A2 z2 | %15
[M:19/16] [DF]/-[DF]/-[DF]/-[DF]/-[DF]-<[DF][K:bass] z/ z/ z/ z/ z/ z/[K:treble] z/ z/ z/ z | %16
[M:35/32] (9:8:14[Fc]/-[Fc]3/64[CFA]/- [CFA]2- [CFA]3/16-[CFA]3/64[=B,F]-[B,F]3/32[B,FG]-[B,FG]3/32 [CFA]2- [CFA]3/16 [_B,EG]2- [B,EG]3/16 | %17
[M:3/4] [A,CF]6 |] %18
V:2
 z4 z2 [F,A,C][F,B,C] | [F,CF]>[F,CF] [F,CF][F,CF] [F,DF]<[F,CF] [F,A,][F,CF] | %2
 [F,F]>[F,F] [F,F]>[F,F] [F,F]2 [E,C][E,C] | %3
 [C,C]>[C,C] [C,C][C,C][K:treble] [B,CE][A,CF][G,CG][K:bass][F,C] | %4
 [C,C]>[C,C] [C,C]>[C,C] [F,CF]2 [F,A,C][F,B,C] | %5
 [F,CF]>[F,CF] [F,CF][F,CF] [F,DF]<[F,CF] [F,A,][F,CF] | %6
 [F,F]>[F,F] [F,F]>[F,F] [F,F]2 [F,C][F,C] | [F,B,F]>[F,DF] [F,DF][F,B,F] [F,B,F]<[F,A,F] A,,B,, | %8
[M:7/8] C,>C,C,>F, F,3 |[M:1/4][K:treble] F>G |[M:4/4] A4[K:bass] z4[K:treble] | A4[K:bass] z4 | %12
 [F,CF][F,CF][F,CF][F,CF] [F,CF][F,B,F][F,A,F][F,CF] | [C,C]2 [C,C]>[C,C] [C,C]2[K:treble] F>G | %14
 A4[K:bass] z4 |[M:19/16] B,,<B,,B,,B,,[B,,F,]/-[B,,F,]/-[B,,F,]-<[B,,F,][B,,B,]3/2[=B,,_A,] | %16
[M:35/32] (9:8:14[C,A,]/-[C,A,]3/64C,/- C,2- C,3/16-C,3/64D,-D,3/32D,-D,3/32 C,2- C,3/16 C,2- C,3/16 | %17
[M:3/4] F,6 |] %18
V:3
 x8 | x8 | x8 | x8 | x8 | x8 | x8 | x8 |[M:7/8] x7 |[M:1/4] x2 |[M:4/4] z2 FF z/ C3/2 B>d | %11
 z2 FF z/ C3/2 F>G | x8 | E2 E>E E2 A>B | z2 FF z/ C3/2 [A,_EG]>[A,EF] | %15
[M:19/16] B,<B,B,[K:bass]B,[B,D]/-[B,D]/-[B,D]-<[B,D][K:treble][Fd]3/2[Fd] |[M:35/32] x8 | %17
[M:3/4] x6 |] %18
V:4
 x8 | x8 | x8 | x4[K:treble] x3[K:bass] x | x8 | x8 | x8 | x8 |[M:7/8] x7 |[M:1/4][K:treble] x2 | %10
[M:4/4] z2[K:bass] F,F, [F,F]<F,[K:treble] G>B | z2[K:bass] F,F, [F,F]<F, [F,A,C]>[F,B,C] | x8 | %13
 x6[K:treble] x2 | z2[K:bass] F,F, [F,F]<F, F,>F, |[M:19/16] x19/2 |[M:35/32] x8 |[M:3/4] x6 |] %18

